symbols/web/brightness_auto/materialsymbolsrounded/brightness_auto_wght600_24px.svg

<svg xmlns="http://www.w3.org/2000/svg" height="24" width="24"><path d="m10.775 8-2.45 6.775q-.175.425.088.812.262.388.737.388.3 0 .538-.163.237-.162.337-.462l.45-1.5h3.05l.475 1.5q.075.3.312.462.238.163.538.163.45 0 .712-.388.263-.387.113-.812L13.25 8q-.15-.4-.5-.638-.35-.237-.75-.237t-.75.237q-.35.238-.475.638Zm.125 4.375 1.05-3.325h.1l1.05 3.325ZM8.575 20.15H6.5q-1.1 0-1.875-.775Q3.85 18.6 3.85 17.5v-2.075L2.325 13.85Q1.55 13.075 1.55 12q0-1.075.775-1.85L3.85 8.575v-2.1q0-1.1.775-1.875.775-.775 1.875-.775h2.075l1.575-1.55q.775-.75 1.85-.75 1.075 0 1.85.75l1.575 1.55h2.1q1.1 0 1.875.775.775.775.775 1.875v2.1l1.55 1.575q.75.775.75 1.85 0 1.075-.75 1.85l-1.55 1.575V17.5q0 1.1-.775 1.875-.775.775-1.875.775h-2.1l-1.575 1.525q-.775.775-1.85.775-1.075 0-1.85-.775Zm3.45-8.175ZM12 19.8l2.3-2.3h3.225v-3.2l2.3-2.3-2.3-2.3V6.475H14.3l-2.3-2.3-2.3 2.3H6.5V9.7L4.2 12l2.3 2.3v3.2h3.2Z"/></svg>

<svg xmlns="http://www.w3.org/2000/svg" height="24" width="24"><path d="M10.775 8 8.325 14.775Q8.15 15.2 8.413 15.587Q8.675 15.975 9.15 15.975Q9.45 15.975 9.688 15.812Q9.925 15.65 10.025 15.35L10.475 13.85H13.525L14 15.35Q14.075 15.65 14.312 15.812Q14.55 15.975 14.85 15.975Q15.3 15.975 15.562 15.587Q15.825 15.2 15.675 14.775L13.25 8Q13.1 7.6 12.75 7.362Q12.4 7.125 12 7.125Q11.6 7.125 11.25 7.362Q10.9 7.6 10.775 8ZM10.9 12.375 11.95 9.05H12.05L13.1 12.375ZM8.575 20.15H6.5Q5.4 20.15 4.625 19.375Q3.85 18.6 3.85 17.5V15.425L2.325 13.85Q1.55 13.075 1.55 12Q1.55 10.925 2.325 10.15L3.85 8.575V6.475Q3.85 5.375 4.625 4.6Q5.4 3.825 6.5 3.825H8.575L10.15 2.275Q10.925 1.525 12 1.525Q13.075 1.525 13.85 2.275L15.425 3.825H17.525Q18.625 3.825 19.4 4.6Q20.175 5.375 20.175 6.475V8.575L21.725 10.15Q22.475 10.925 22.475 12Q22.475 13.075 21.725 13.85L20.175 15.425V17.5Q20.175 18.6 19.4 19.375Q18.625 20.15 17.525 20.15H15.425L13.85 21.675Q13.075 22.45 12 22.45Q10.925 22.45 10.15 21.675ZM12.025 11.975ZM12 19.8 14.3 17.5H17.525V14.3L19.825 12L17.525 9.7V6.475H14.3L12 4.175L9.7 6.475H6.5V9.7L4.2 12L6.5 14.3V17.5H9.7Z"/></svg>
